src/main/resources/icons/RubyIcons/icons/rails/migrationsClosed.svg

<svg xmlns="http://www.w3.org/2000/svg" width="16" height="16" viewBox="0 0 16 16">
  <g fill="none" fill-rule="evenodd">
    <path fill="#9AA7B0" fill-opacity=".8" fill-rule="nonzero" d="M1,13 L8,13 L8,8 L15,8 L15,4 L7.98457,4 L6.69633,2.71149 C6.22161957,2.28559443 5.61570121,2.03457993 4.97888,2 L1.05128,2 C1.02295884,2 1,2.02295884 1,2.05128 L1,13 Z"/>
    <path fill="#9AA7B0" d="M10,14 L11,14 L11,12 L10,12 L10,14 Z M12,14 L13,14 L13,12 L12,12 L12,14 Z M10,11 L13,11 L13,10 L10,10 L10,11 Z M14,11 L15,11 L15,10 L14,10 L14,11 Z M11,11 L12,11 L12,10 L11,10 L11,11 Z M9,15 L16,15 L16,9 L9,9 L9,15 Z M14,14 L15,14 L15,12 L14,12 L14,14 Z"/>
  </g>
</svg>

<svg xmlns="http://www.w3.org/2000/svg" width="16" height="16" viewBox="0 0 16 16"><rect id="frame" width="16" height="16" fill="none"/><g fill="#9AA7B0" fill-rule="evenodd"><path fill-opacity=".8" fill-rule="nonzero" d="M1 13h7V8h7V4H7.985L6.696 2.711A2.8 2.8 0 0 0 4.98 2H1.05A.051.051 0 0 0 1 2.051V13z"/><path d="M10 14h1v-2h-1v2zm2 0h1v-2h-1v2zm-2-3h3v-1h-3v1zm4 0h1v-1h-1v1zm-3 0h1v-1h-1v1zm-2 4h7V9H9v6zm5-1h1v-2h-1v2z"/></g></svg>
